X:1
T:Title
%%score { ( 1 3 ) | ( 2 4 ) }
L:1/8
Q:1/4=100
M:4/4
K:F
V:1 treble nm="Grand Piano"
V:3 treble 
V:2 bass 
V:4 bass 
V:1
 c2 c>B A2 [CFA]>[B,EG] | [A,F]2 (3[B,-D-G][B,DF]D C2 F2 | A2 d>c c2 F>G | A2 (3[CE-A][EG]F [EG]4 | %4
 A2 A>B c2 F>F | d2 (3[df][ce][Bd] [Ac]2 A2 | c2 (3fed c A2 F | [CFA]2 [B,EA]>[B,EG] [A,F]4 | %8
 [CEG]2 (3:2:2[G,C]2 [B,EG] B .A3 | A2 (3FGA d .c3 | %10
[M:17/16] f-<fB/cd/cA3/2 z/ CG/[Q:1/4=99][Q:1/4=97][Q:1/4=96] | %11
[M:4/4] [CFA]2 [B,EA]>[B,EG] [A,F]4[Q:1/4=94][Q:1/4=93][Q:1/4=91][Q:1/4=90][Q:1/4=88][Q:1/4=87][Q:1/4=85][Q:1/4=84][Q:1/4=82][Q:1/4=81][Q:1/4=79][Q:1/4=78][Q:1/4=76] |] %12
V:2
 [F,A,F]2 [F,A,F]>[F,DF] [F,CF]2 C,>C, | D,2 (3:2:2B,,2 [B,,F,B,] [F,A,]2 [F,A,C]2 | %2
 [F,CF]2 [B,F]>[A,CF][K:bass] [F,A,F]2 [F,A,]>[F,B,F] | [F,CF]2 (3C,-[C,B,][C,A,] [C,C]4 | %4
 [F,CF]2 [F,CF]>[G,CE] [A,CF]2[K:bass] [F,A,C]>[F,A,C] | %5
 [B,FB]2 (3:2:2[B,F]2 [B,F] [F,F]2 [F,CF]2 | %6
 [F,A,F]2 (3[F,-DF-][F,CF][F,B,F] [F,A,F] [F,CF]2 [F,A,C] | C,2 C,>C, F,4 | %8
 C,2 (3C,-[C,E]C,[K:treble] [G,CE] .[F,CF]3 | [F,CF]2 (3[A,C][G,E][F,CF] [B,F] .[A,CF]3 | %10
[M:17/16] z/ z/ z F3/2 z/ z/ z/[K:bass] z/ z .B,3/2 z/ |[M:4/4] C,2 C,>C, F,4 |] %12
V:3
 x8 | x8 | x8 | x8 | x8 | x8 | x8 | x8 | x8 | x8 | %10
[M:17/16] z/ z/ z/ z/ z/ z/ z/ z/ z/ z/ z/ z F-<F |[M:4/4] x8 |] %12
V:4
 x8 | x8 | x4[K:bass] x4 | x8 | x6[K:bass] x2 | x8 | x8 | x8 | x4[K:treble] x4 | x8 | %10
[M:17/16] [B,DF]-<[B,DF][B,D]/[A,C][B,F]/[A,CF][K:bass][F,CE]3/2D,->[^C,D,=B,] |[M:4/4] x8 |] %12

